-----BEGIN PGP PUBLIC KEY BLOCK-----

mQINBGAIL98BEADj7tL/eDsMXiPtSRDSI1e/utoZh8oWB3OGWn754v42lsveQLFe
Jfco7wM0WQLOFjGGg5h+FntarNwNbu5VkJMUgZUZL//g83tdf6jqLxlB6gSnYd7l
CLbEIju3rxip/K5a15gf082W8W1TlwiNRWmqx6QST8E2HWkFrzq0+IGFCHdsdJqt
tGWOCA9sflcuO/ykv0l+MRBqKMUzRUaKUClPef+y4tmP/LO1tKnZ82agvDWYBv1g
ZkrCpqOJ/c1oBsLeaJZpw0rWqHaiD/gLiebVNrvKuOs4W+rKB/uKrYKCST2fWXvq
dPkWYC3/oJQ8y8c23lMOkF4OEWTC4nMlOzjU8e2vS8lRAMhl2g62T1j/M/Ifx35U
lejUaYwtrXCFpPTz7AaqEpyjvcxoNA/t/HhbH7ue5NTZ2JznrIZrqQ9SY8wSdg0m
QAi0rlRcnn7QCG8KQQTTw4jSKlTb7qzikXTOsXX08S94MVg9+r8vGcn3P2Z7CJhp
V9NkNObMnBNAc2DH4AdprrAncIaHtmOgGjDbeZYF6tnOk8o0s5eUj1+MjPs4LnvN
9LgVJrsTZmT/U42FnIQlAxRkK47G2hHpq7V2728nTUq+mh1bThzBBkq1knarjxYc
SQPp8LRHR9s/JDsCO5O3mrUoc95Lz9TYhKw84RKpyVdrcJKhXIQjPu9p5wARAQAB
tChub3RzZXQtcmVidWlsZGVyIDxmZXBpdHJlLWJvdEBub3RzZXQuZnI+iQJUBBMB
CgA+FiEEjesL7x2Z/ri5qQ+xku9tYUFkHlwFAmAIL98CGwMFCQPCZwAFCwkIBwIG
FQoJCAsCBBYCAwECHgECF4AACgkQku9tYUFkHlxlPxAAlZwpcx3UOeebsV4n4ZFt
PInZmhkEeYWxlh95i2KPwbfXGjR0Q8ouM1hbaEk2nSGMl3VQFUJw9IHPeNHcRCCI
AcfFib5UU3rJ1QHO7Mm/5EQvKeKCMFmB2v6caIAyDNzfHe1w8NTA9e5sEWdHI+Ly
5Wc/txEXwnjth+ZiMGZTVEVA8WMpxu/a+YGPZfLMr5ky8kvJEnLc5EnPNlKONveB
FO9f18XEts7B9/6RX7YtHeXZDcNqjLrYPpUKlXrIhfrpMUV8vbeX1nEUG3Zb+I0r
xV/hkTJH6eFNy9YCYaL1fs02JzQjdVWSRnCLEJ+X3F7MU80YIsF4SA/fu+F0xAs0
OfGVOnRzxQSs2Qeza6k7gyzRg5OpIwMM6FErYCwPlTV9spW89T+W1eg7p/S8slTk
25Krh3GzRY6FRVFB74fopRev/j6HLOMaqYeM3UcUP6qPdgAE+3VEmSLupvAXCxpM
L6wJbsdGCE7xv4AyC3A5N3Q1bhBhAU0KFk8N5M8H1v9MSfVNTKMmBDQ6Sniq+0g7
IqnXAOEE7x9ZjYRORSmIAar0CI12R4liXAGN2HpBZXkeWWAPAXRGWPWp/3H2cdp/
Gmxr/2v1w5EdiR8vbhncnhO7rOk1S+m8A/xQ2mnQR/kIp3kRjXJwBYEkcATo4DjW
/QuaFXTQIJwmwFZwSMOIjJk=
=TgKf
-----END PGP PUBLIC KEY BLOCK-----
